X:087 
T:Joe Kilmurry's Jig*
F:file ID: cre.5/087joe_kil
M:6/8
Q:160
R:jig
K:Em
B:CRE 5.015 (gan ainm)
E3 BAF|FEF d3|E3 BAB|d2B AFD|
E3 BAF|FEF d2e|fed ed^c|BAF AFE:|
|:f2e d2B|AFA AFd|f2e d2e|fbb afe|
fef d2B|AFA A3|fed ed^c|1 BAF AFE :|\
[2 BAF AFD|E6|]

%%%

